!!!OTL: In Festo S Stephani
**kern
*staff1
=--
*clefC1
*k[b-]
0r
=-
1cc
2dd
2cc
=-
2b-
2a
1g
=-
1a
1a
=-
2b-
2cc
2dd
2cc
=-
!!linebreak:original
0b-
=-
1cc
1cc
=-
2b-
2a
1.g
2g
1a
=-
!LO:TX:Y=-44:t=P
1cc
1dd
1b-
1.cc
2cc
=-=
*-
!!title: @{OTL}, @{GTL}, ed. @{ENC}
!!!pag:
!!!GTL: Hymnbook C
!!!EFL: 
!!!YEM: Creative Commons CC/BY/NC/SA 4.0
!!!ENC: Marcin Konik
!!!END: 2015-0m-dd
!!!EED: Marcin Konik
!!!EEV: 
!!!ONB: Encoded in vim by Marcin Konik
!!!CharacterEncoding: utf-8
!!!RDF**kern: l=long note in original notation
!!!RDF**kern: i=editorial accidental
!!muse2ps: z14jc180F
!!!COM: Anonim
!!!CDT: [?]
!!!TXO: Polish
!!!ODT: 
!!!GTL: Hymnbook C
!!!ARL: Opactwo św. Wojciecha, Staniątki 
!!!voices:	1
